X:401
T:Retreat
S:Bruce & Emmett's Drummers and Fifers Guide (1862), p. 40
M:3/4
L:1/8
Q:Moderato
K:Bm
%%MIDI program 72
%%MIDI transpose 8
%%MIDI ratio 3 1
d>B|A2A2 B>d|e2e2 de/f/|g2f2 e>d|B4 de/f/|g2f2e2|d>f a2 f>e|ed B2B2|B2z2::
f>g|a2a2 g>f|g2g2 f>e|f2 gfed|B2z2 de/f/|g2f2 e>f|d>fa2f>e|ed B2B2|B2z2:|
